xia/img/transfer.svg

<svg width="162" height="161" viewBox="0 0 162 161" fill="none" xmlns="http://www.w3.org/2000/svg">
<g clip-path="url(#clip0_109_928)">
<path d="M162 103.61C162 134.67 136.851 159.857 105.838 159.857C80.6146 159.857 59.2929 143.232 52.1857 120.31C50.5455 115.034 49.6758 109.409 49.6758 103.61C49.6758 72.5499 74.8244 47.3633 105.838 47.3633C108.397 47.3633 110.932 47.5375 113.417 47.861C140.852 51.5693 162 75.1133 162 103.61Z" fill="url(#paint0_linear_109_928)"/>
<path d="M162 103.61C162 134.67 136.851 159.857 105.838 159.857C80.6146 159.857 59.2929 143.232 52.1857 120.31C50.5455 115.034 49.6758 109.409 49.6758 103.61C49.6758 72.5499 74.8244 47.3633 105.838 47.3633C108.397 47.3633 110.932 47.5375 113.417 47.861C140.852 51.5693 162 75.1133 162 103.61Z" fill="url(#paint1_linear_109_928)"/>
<path d="M105.839 150.797C131.861 150.797 152.956 129.67 152.956 103.609C152.956 77.5484 131.861 56.4219 105.839 56.4219C79.8174 56.4219 58.7227 77.5484 58.7227 103.609C58.7227 129.67 79.8174 150.797 105.839 150.797Z" fill="url(#paint2_linear_109_928)"/>
<path d="M102.731 131.161V124.74C98.2087 124.541 93.835 123.247 91.2754 121.828L93.2883 113.914C96.1212 115.457 100.097 116.876 104.471 116.876C108.372 116.876 111.007 115.333 111.007 112.695C111.007 110.131 108.845 108.513 103.8 106.821C96.5934 104.382 91.673 101.022 91.673 94.4517C91.673 88.4288 95.8479 83.7748 103.079 82.4309V76.0098H109.69V81.958C114.138 82.0824 117.17 83.1028 119.53 84.1979L117.517 91.8385C115.828 91.0172 112.672 89.4741 107.801 89.4741C103.427 89.4741 102.011 91.4403 102.011 93.3318C102.011 95.497 104.372 96.9903 110.162 99.0809C118.188 101.918 121.344 105.626 121.344 111.774C121.344 117.797 117.17 122.924 109.416 124.193V131.161H102.731Z" fill="white" fill-opacity="0.63"/>
<path opacity="0.4" d="M115.952 64.5608C115.952 95.621 90.8038 120.808 59.7905 120.808C57.2309 120.808 54.6961 120.633 52.2111 120.31C50.5709 115.034 49.7012 109.409 49.7012 103.61C49.7012 72.5499 74.8498 47.3633 105.863 47.3633C108.423 47.3633 110.958 47.5375 113.443 47.861C115.083 53.1373 115.952 58.7619 115.952 64.5608Z" fill="black" fill-opacity="0.53"/>
<path d="M56.162 117.845C87.1794 117.845 112.324 92.6625 112.324 61.5983C112.324 30.5341 87.1794 5.35156 56.162 5.35156C25.1446 5.35156 0 30.5341 0 61.5983C0 92.6625 25.1446 117.845 56.162 117.845Z" fill="url(#paint3_linear_109_928)"/>
<path d="M56.162 117.845C87.1794 117.845 112.324 92.6625 112.324 61.5983C112.324 30.5341 87.1794 5.35156 56.162 5.35156C25.1446 5.35156 0 30.5341 0 61.5983C0 92.6625 25.1446 117.845 56.162 117.845Z" fill="url(#paint4_linear_109_928)"/>
<path d="M56.1633 108.785C82.185 108.785 103.28 87.6586 103.28 61.5977C103.28 35.5367 82.185 14.4102 56.1633 14.4102C30.1416 14.4102 9.04688 35.5367 9.04688 61.5977C9.04688 87.6586 30.1416 108.785 56.1633 108.785Z" fill="url(#paint5_linear_109_928)"/>
<path d="M98.7812 4.67893L107.901 24.6888L111.554 17.6704C111.554 17.6704 133.746 23.6933 144.382 48.8799L154.123 40.6918C154.123 40.6918 142.021 15.0074 116.4 6.7944L119.755 0L98.7812 4.67893Z" fill="url(#paint6_linear_109_928)"/>
<path d="M98.7812 4.67893L107.901 24.6888L111.554 17.6704C111.554 17.6704 133.746 23.6933 144.382 48.8799L154.123 40.6918C154.123 40.6918 142.021 15.0074 116.4 6.7944L119.755 0L98.7812 4.67893Z" fill="url(#paint7_linear_109_928)"/>
<path d="M55.1186 159.282L48.8563 138.178L44.2838 144.623C44.2838 144.623 23.1361 135.589 16.0786 109.158L5.31836 115.928C5.31836 115.928 13.7427 143.031 37.9967 154.728L33.6976 160.975L55.1186 159.282Z" fill="url(#paint8_linear_109_928)"/>
<path d="M55.1186 159.282L48.8563 138.178L44.2838 144.623C44.2838 144.623 23.1361 135.589 16.0786 109.158L5.31836 115.928C5.31836 115.928 13.7427 143.031 37.9967 154.728L33.6976 160.975L55.1186 159.282Z" fill="url(#paint9_linear_109_928)"/>
<path d="M47.3136 25V58.5561L62.4407 41.6014V25H64.7542V41.6014H84.6864L66.7119 61.7351L87 81.5155H69.2034L69.0254 98.6468L66.7119 99L66.5339 62.0883L48.0254 82.222V99H45.7119V82.222L26.3136 81.5155L45 61.0286L24 41.6014H45V25H47.3136Z" fill="white" fill-opacity="0.63"/>
</g>
<defs>
<linearGradient id="paint0_linear_109_928" x1="49.6747" y1="103.611" x2="162.012" y2="103.611" gradientUnits="userSpaceOnUse">
<stop offset="1e-08" stop-color="#96B3F9"/>
<stop offset="1" stop-color="#4870FA"/>
</linearGradient>
<linearGradient id="paint1_linear_109_928" x1="49.6383" y1="103.611" x2="162.029" y2="103.611" gradientUnits="userSpaceOnUse">
<stop offset="1e-08" stop-color="#7ED8F0"/>
<stop offset="1" stop-color="#0096BE"/>
</linearGradient>
<linearGradient id="paint2_linear_109_928" x1="58.6912" y1="103.61" x2="152.98" y2="103.61" gradientUnits="userSpaceOnUse">
<stop offset="1e-08" stop-color="#3BAAC7"/>
<stop offset="1" stop-color="#4FC0DE"/>
</linearGradient>
<linearGradient id="paint3_linear_109_928" x1="-0.00111827" y1="61.5992" x2="112.336" y2="61.5992" gradientUnits="userSpaceOnUse">
<stop offset="1e-08" stop-color="#96B3F9"/>
<stop offset="1" stop-color="#4870FA"/>
</linearGradient>
<linearGradient id="paint4_linear_109_928" x1="-0.0374669" y1="61.5988" x2="112.353" y2="61.5988" gradientUnits="userSpaceOnUse">
<stop offset="1e-08" stop-color="#7ED8F0"/>
<stop offset="1" stop-color="#0096BE"/>
</linearGradient>
<linearGradient id="paint5_linear_109_928" x1="9.01544" y1="61.5981" x2="103.304" y2="61.5981" gradientUnits="userSpaceOnUse">
<stop offset="1e-08" stop-color="#3BAAC7"/>
<stop offset="1" stop-color="#4FC0DE"/>
</linearGradient>
<linearGradient id="paint6_linear_109_928" x1="98.7807" y1="24.4403" x2="154.129" y2="24.4403" gradientUnits="userSpaceOnUse">
<stop offset="1e-08" stop-color="#96B3F9"/>
<stop offset="1" stop-color="#4870FA"/>
</linearGradient>
<linearGradient id="paint7_linear_109_928" x1="98.7628" y1="24.4402" x2="154.137" y2="24.4402" gradientUnits="userSpaceOnUse">
<stop offset="1e-08" stop-color="#7ED8F0"/>
<stop offset="1" stop-color="#0096BE"/>
</linearGradient>
<linearGradient id="paint8_linear_109_928" x1="5.31786" y1="135.067" x2="55.1241" y2="135.067" gradientUnits="userSpaceOnUse">
<stop offset="1e-08" stop-color="#96B3F9"/>
<stop offset="1" stop-color="#4870FA"/>
</linearGradient>
<linearGradient id="paint9_linear_109_928" x1="5.30175" y1="135.067" x2="55.1314" y2="135.067" gradientUnits="userSpaceOnUse">
<stop offset="1e-08" stop-color="#7ED8F0"/>
<stop offset="1" stop-color="#0096BE"/>
</linearGradient>
<clipPath id="clip0_109_928">
<rect width="162" height="161" fill="white"/>
</clipPath>
</defs>
</svg>

<svg xmlns="http://www.w3.org/2000/svg" width="162" height="161" fill="none"><g clip-path="url(#a)"><path fill="url(#b)" d="M162 103.61c0 31.06-25.149 56.247-56.162 56.247-25.223 0-46.545-16.625-53.652-39.547a56.24 56.24 0 0 1-2.51-16.7c0-31.06 25.148-56.247 56.162-56.247 2.559 0 5.094.175 7.579.498C140.852 51.569 162 75.113 162 103.61Z"/><path fill="url(#c)" d="M105.838 150.797c26.022 0 47.117-21.127 47.117-47.188 0-26.06-21.095-47.187-47.117-47.187s-47.116 21.126-47.116 47.187c0 26.061 21.094 47.188 47.116 47.188Z"/><path fill="#CCD9FD" d="M102.731 131.161v-6.421c-4.522-.199-8.896-1.493-11.456-2.912l2.013-7.914c2.833 1.543 6.809 2.962 11.183 2.962 3.901 0 6.536-1.543 6.536-4.181 0-2.564-2.162-4.182-7.207-5.874-7.207-2.439-12.127-5.799-12.127-12.37 0-6.022 4.175-10.676 11.406-12.02V76.01h6.611v5.948c4.448.124 7.48 1.145 9.84 2.24l-2.013 7.64c-1.689-.82-4.845-2.364-9.716-2.364-4.374 0-5.79 1.966-5.79 3.858 0 2.165 2.361 3.658 8.151 5.749 8.026 2.837 11.182 6.545 11.182 12.693 0 6.023-4.174 11.15-11.928 12.419v6.968h-6.685Z"/><path fill="#000" fill-opacity=".53" d="M115.952 64.56c0 31.061-25.148 56.248-56.161 56.248-2.56 0-5.095-.175-7.58-.498a56.24 56.24 0 0 1-2.51-16.7c0-31.06 25.149-56.247 56.162-56.247 2.56 0 5.095.175 7.58.498a56.246 56.246 0 0 1 2.509 16.7Z" opacity=".4"/><path fill="url(#d)" d="M56.162 117.845c31.017 0 56.162-25.183 56.162-56.247S87.179 5.352 56.162 5.352 0 30.534 0 61.598c0 31.064 25.145 56.247 56.162 56.247Z"/><path fill="url(#e)" d="M56.162 108.785c26.022 0 47.117-21.126 47.117-47.187 0-26.061-21.095-47.188-47.117-47.188-26.021 0-47.116 21.127-47.116 47.188 0 26.06 21.095 47.187 47.116 47.187Z"/><path fill="url(#f)" fill-opacity=".67" d="m98.78 4.679 9.12 20.01 3.653-7.019s22.192 6.023 32.828 31.21l9.741-8.188S142.02 15.007 116.399 6.794L119.754 0 98.78 4.679Z"/><path fill="url(#g)" fill-opacity=".67" d="m55.119 159.282-6.263-21.104-4.572 6.445s-21.148-9.034-28.205-35.465l-10.76 6.77s8.424 27.103 32.678 38.8l-4.3 6.247 21.422-1.693Z"/><path fill="#fff" fill-opacity=".63" d="M47.314 25v33.556L62.44 41.601V25h2.313v16.601h19.932L66.712 61.735 87 81.515H69.203l-.178 17.132-2.313.353-.178-36.912-18.509 20.134V99h-2.313V82.222l-19.398-.706L45 61.029 24 41.6h21V25h2.314Z"/></g><defs><linearGradient id="b" x1="49.675" x2="162.012" y1="103.611" y2="103.611" gradientUnits="userSpaceOnUse"><stop offset="0" stop-color="#96B3F9"/><stop offset="1" stop-color="#4870FA"/></linearGradient><linearGradient id="c" x1="58.732" x2="152.956" y1="103.61" y2="103.61" gradientUnits="userSpaceOnUse"><stop stop-color="#4870FA"/><stop offset="1" stop-color="#96B3F9"/></linearGradient><linearGradient id="d" x1="0" x2="112.336" y1="61.603" y2="61.603" gradientUnits="userSpaceOnUse"><stop offset="0" stop-color="#96B3F9"/><stop offset="1" stop-color="#4870FA"/></linearGradient><linearGradient id="e" x1="9.056" x2="103.28" y1="61.602" y2="61.602" gradientUnits="userSpaceOnUse"><stop stop-color="#4870FA"/><stop offset="1" stop-color="#96B3F9"/></linearGradient><linearGradient id="f" x1="98.789" x2="154.103" y1="24.442" y2="24.442" gradientUnits="userSpaceOnUse"><stop offset="0" stop-color="#96B3F9"/><stop offset="1" stop-color="#4870FA"/></linearGradient><linearGradient id="g" x1="57.856" x2="3.073" y1="139.703" y2="132.059" gradientUnits="userSpaceOnUse"><stop offset="0" stop-color="#96B3F9"/><stop offset="1" stop-color="#4870FA"/></linearGradient><clipPath id="a"><path fill="#fff" d="M0 0h162v161H0z"/></clipPath></defs></svg>
